icons/svg/office/publisher.svg

<?xml version="1.0" encoding="UTF-8" standalone="no"?>
<!-- Created with Inkscape (http://www.inkscape.org/) -->

<svg
   xmlns:dc="http://purl.org/dc/elements/1.1/"
   xmlns:cc="http://creativecommons.org/ns#"
   xmlns:rdf="http://www.w3.org/1999/02/22-rdf-syntax-ns#"
   xmlns:svg="http://www.w3.org/2000/svg"
   xmlns="http://www.w3.org/2000/svg"
   xmlns:sodipodi="http://sodipodi.sourceforge.net/DTD/sodipodi-0.dtd"
   xmlns:inkscape="http://www.inkscape.org/namespaces/inkscape"
   version="1.0"
   width="580"
   height="580"
   id="svg2"
   sodipodi:version="0.32"
   inkscape:version="0.91 r"
   sodipodi:docname="publisher.svg"
   inkscape:output_extension="org.inkscape.output.svg.inkscape">
  <metadata
     id="metadata10">
    <rdf:RDF>
      <cc:Work
         rdf:about="">
        <dc:format>image/svg+xml</dc:format>
        <dc:type
           rdf:resource="http://purl.org/dc/dcmitype/StillImage" />
        <cc:license
           rdf:resource="http://web.resource.org/cc/PublicDomain" />
        <dc:language>en</dc:language>
        <dc:title></dc:title>
      </cc:Work>
    </rdf:RDF>
  </metadata>
  <sodipodi:namedview
     inkscape:window-height="1004"
     inkscape:window-width="1920"
     inkscape:pageshadow="2"
     inkscape:pageopacity="0.0"
     guidetolerance="10.0"
     gridtolerance="10.0"
     objecttolerance="10.0"
     borderopacity="1.0"
     bordercolor="#666666"
     pagecolor="#ffffff"
     id="base"
     showgrid="false"
     inkscape:zoom="0.35355339"
     inkscape:cx="297.20128"
     inkscape:cy="322.89064"
     inkscape:window-x="1680"
     inkscape:window-y="0"
     inkscape:current-layer="svg2"
     inkscape:window-maximized="1" />
  <defs
     id="defs4">
    <inkscape:perspective
       sodipodi:type="inkscape:persp3d"
       inkscape:vp_x="0 : 290 : 1"
       inkscape:vp_y="0 : 1000 : 0"
       inkscape:vp_z="580 : 290 : 1"
       inkscape:persp3d-origin="290 : 193.33333 : 1"
       id="perspective12" />
  </defs>
  <g
     id="g1327">
    <path
       d="M 66.275,1.768 C 24.94,1.768 1.704,23.139 1.704,66.804 L 1.704,516.927 C 1.704,557.771 22.598,579.156 63.896,579.156 L 515.92,579.156 C 557.227,579.156 578.149,558.84 578.149,516.927 L 578.149,66.804 C 578.149,24.203 557.227,1.768 514.627,1.768 C 514.624,1.768 66.133,1.625 66.275,1.768 z"
       style="fill:#111111;stroke:#eeeeee;stroke-width:3.40799999"
       id="path1329" />
  </g>
  <path
     inkscape:connector-curvature="0"
     style="color:#000000;clip-rule:nonzero;display:inline;overflow:visible;visibility:visible;opacity:1;isolation:auto;mix-blend-mode:normal;color-interpolation:sRGB;color-interpolation-filters:linearRGB;solid-color:#000000;solid-opacity:1;fill:#ffffff;fill-opacity:1;fill-rule:nonzero;stroke:none;stroke-width:25;stroke-linecap:round;stroke-linejoin:round;stroke-miterlimit:4;stroke-dasharray:none;stroke-dashoffset:0;stroke-opacity:1;marker:none;color-rendering:auto;image-rendering:auto;shape-rendering:auto;text-rendering:auto;enable-background:accumulate"
     d="m 143.29087,308.48637 c -15.16319,0 -28.17493,9.21233 -33.74414,22.34765 l -2.89258,35.31446 0,38.75586 c 0,4.71422 0.89771,9.21518 2.51954,13.35546 l -79.132816,0 0,26.78907 0,10.71679 0,92.875 24.779038,0 0,-92.875 254.074738,0 0,92.875 24.77513,0 0,-92.875 0.002,0 0,-37.50586 -79.13281,0 c 1.62182,-4.14028 2.51953,-8.64126 2.51953,-13.35546 l 0,-38.75391 -2.89258,-35.31836 c -5.5692,-13.13175 -18.58094,-22.3457 -33.74414,-22.3457 l -77.13086,0 z m -7.71289,49.17382 8.67774,0 0,60.59961 -8.67774,0 z m 83.87891,0 8.67773,0 0,60.59961 -8.67773,0 z"
     id="path4178"
     sodipodi:nodetypes="sccsccccccccccccccsccscscccccccccc" />
  <path
     inkscape:connector-curvature="0"
     style="color:#000000;clip-rule:nonzero;display:inline;overflow:visible;visibility:visible;opacity:1;isolation:auto;mix-blend-mode:normal;color-interpolation:sRGB;color-interpolation-filters:linearRGB;solid-color:#000000;solid-opacity:1;fill:#ffffff;fill-opacity:1;fill-rule:nonzero;stroke:none;stroke-width:25;stroke-linecap:round;stroke-linejoin:round;stroke-miterlimit:4;stroke-dasharray:none;stroke-dashoffset:0;stroke-opacity:1;marker:none;color-rendering:auto;image-rendering:auto;shape-rendering:auto;text-rendering:auto;enable-background:accumulate"
     d="m 181.85728,203.24223 c -24.76076,0 -44.83397,20.07127 -44.83399,44.83203 0,24.76075 20.07323,44.83203 44.83399,44.83203 24.76076,0 44.83203,-20.07128 44.83203,-44.83203 0,-24.76076 -20.07127,-44.83203 -44.83203,-44.83203 z"
     id="path4176" />
  <path
     inkscape:connector-curvature="0"
     style="fill:#ffffff;fill-opacity:1;fill-rule:evenodd;stroke:#ffffff;stroke-width:6.20854187;stroke-linecap:round;stroke-linejoin:round;stroke-miterlimit:4;stroke-dasharray:none;stroke-opacity:1"
     d="M 265.79309,102.51866 407.65923,263.62085 543.51408,185.47427 405.25478,25.574328 265.79309,102.51866 Z"
     id="path3470" />
  <path
     inkscape:connector-curvature="0"
     style="fill:#ffffff;fill-opacity:1;fill-rule:evenodd;stroke:#ffffff;stroke-width:6.20854187;stroke-linecap:round;stroke-linejoin:round;stroke-miterlimit:4;stroke-dasharray:none;stroke-opacity:1"
     d="m 258.17027,120.34483 139.46157,158.6977 0.60114,60.11274 -140.66385,-158.99823 0.60114,-59.81221 z"
     id="path3474" />
  <path
     inkscape:connector-curvature="0"
     style="opacity:0.75;fill:#ffffff;fill-opacity:1;fill-rule:evenodd;stroke:#ffffff;stroke-width:10.23002243;stroke-linecap:round;stroke-linejoin:round;stroke-miterlimit:4;stroke-dasharray:none;stroke-opacity:1"
     d="m 542.43204,206.35574 -128.05081,75.03215 -0.0896,1.97762 127.94333,-74.97842 0.19704,-2.03135 z"
     id="path3476"
     sodipodi:nodetypes="ccccc" />
  <path
     inkscape:connector-curvature="0"
     sodipodi:nodetypes="ccccc"
     id="path3505"
     d="m 542.43204,231.18991 -128.05081,75.03214 -0.0896,1.97763 127.94333,-74.97842 0.19704,-2.03135 z"
     style="opacity:0.75;fill:#ffffff;fill-opacity:1;fill-rule:evenodd;stroke:#ffffff;stroke-width:10.23002243;stroke-linecap:round;stroke-linejoin:round;stroke-miterlimit:4;stroke-dasharray:none;stroke-opacity:1" />
  <path
     inkscape:connector-curvature="0"
     style="opacity:0.75;fill:#ffffff;fill-opacity:1;fill-rule:evenodd;stroke:#ffffff;stroke-width:10.23002243;stroke-linecap:round;stroke-linejoin:round;stroke-miterlimit:4;stroke-dasharray:none;stroke-opacity:1"
     d="m 542.43204,256.02408 -128.05081,75.03214 -0.0896,1.97763 127.94333,-74.97842 0.19704,-2.03135 z"
     id="path3507"
     sodipodi:nodetypes="ccccc" />
</svg>

<svg width="580" height="580" viewBox="0 0 580 580" fill="none" xmlns="http://www.w3.org/2000/svg">
<g clip-path="url(#clip0)">
<path d="M66.2751 1.7679C24.9401 1.7679 1.7041 23.1389 1.7041 66.8039V516.927C1.7041 557.771 22.5981 579.156 63.8961 579.156H515.92C557.227 579.156 578.149 558.84 578.149 516.927V66.8039C578.149 24.2029 557.227 1.7679 514.627 1.7679C514.624 1.7679 66.1331 1.6249 66.2751 1.7679Z" fill="#111111" stroke="#EEEEEE" stroke-width="3.408"/>
<path d="M143.291 308.486C128.128 308.486 115.116 317.699 109.547 330.834L106.654 366.148V404.904C106.654 409.619 107.552 414.119 109.174 418.26H30.0408V445.049V455.766V548.641H54.8198V455.766H308.895V548.641H333.67V455.766H333.672V418.26H254.539C256.161 414.119 257.058 409.618 257.058 404.904V366.15L254.166 330.832C248.597 317.7 235.585 308.486 220.422 308.486H143.291H143.291ZM135.578 357.66H144.256V418.26H135.578V357.66ZM219.457 357.66H228.135V418.26H219.457V357.66Z" fill="white"/>
<path d="M181.857 203.242C157.096 203.242 137.023 223.313 137.023 248.074C137.023 272.835 157.096 292.906 181.857 292.906C206.618 292.906 226.689 272.835 226.689 248.074C226.689 223.313 206.618 203.242 181.857 203.242Z" fill="white"/>
<path fill-rule="evenodd" clip-rule="evenodd" d="M265.793 102.519L407.659 263.621L543.514 185.474L405.255 25.5742L265.793 102.519Z" fill="white" stroke="white" stroke-width="6.20854" stroke-linecap="round" stroke-linejoin="round"/>
<path fill-rule="evenodd" clip-rule="evenodd" d="M258.17 120.345L397.632 279.042L398.233 339.155L257.569 180.157L258.17 120.345V120.345Z" fill="white" stroke="white" stroke-width="6.20854" stroke-linecap="round" stroke-linejoin="round"/>
<path opacity="0.75" fill-rule="evenodd" clip-rule="evenodd" d="M542.432 206.356L414.381 281.388L414.292 283.365L542.235 208.387L542.432 206.356H542.432Z" fill="white" stroke="white" stroke-width="10.23" stroke-linecap="round" stroke-linejoin="round"/>
<path opacity="0.75" fill-rule="evenodd" clip-rule="evenodd" d="M542.432 231.19L414.381 306.222L414.292 308.2L542.235 233.221L542.432 231.19H542.432Z" fill="white" stroke="white" stroke-width="10.23" stroke-linecap="round" stroke-linejoin="round"/>
<path opacity="0.75" fill-rule="evenodd" clip-rule="evenodd" d="M542.432 256.024L414.381 331.056L414.292 333.034L542.235 258.056L542.432 256.024H542.432Z" fill="white" stroke="white" stroke-width="10.23" stroke-linecap="round" stroke-linejoin="round"/>
</g>
<defs>
<clipPath id="clip0">
<path d="M0 0H580V580H0V0Z" fill="white"/>
</clipPath>
</defs>
</svg>
